src/svg/steam.svg

<svg height="1000" width="968.8" xmlns="http://www.w3.org/2000/svg">
    <path d="m968.8 500c0 267.6-217.2 484.4-485.2 484.4-222.3 0-409.4-149-466.8-352.4l185.9 76.8c12.5 62.7 68.2 110.1 134.6 110.1 76.6 0 140.4-63.2 137.1-143.5l165.1-117.6c101.7 2.6 187.1-79.9 187.1-182.6 0-100.8-82.1-182.6-183-182.6s-183.1 82-183.1 182.6v2.3l-115.6 167.4c-30.3-1.7-59.9 6.7-84.9 23.7l-260-107.5c19.9-249.4 228.7-445.5 483.6-445.5 268 0 485.1 216.8 485.1 484.4z m-664.7 250.6c38.7 16 83-2.2 99.2-41 16.2-38.7-2.1-83-40.8-99.1l-61.5-25.3c23.8-9 50.8-9.4 76 1.1 25.3 10.6 45.1 30.5 55.6 55.9s10.4 53.3-0.2 78.7c-21.9 52.3-82.2 77.3-134.7 55.5-23.4-9.8-42.2-27.7-53.2-50.4z m339.5-253.7c-67.2 0-121.9-54.7-121.9-121.7 0-67 54.7-121.7 121.9-121.7s121.8 54.7 121.8 121.7c0 67-54.5 121.7-121.8 121.7z m0.2-30.5c50.5 0 91.6-41 91.6-91.4 0-50.6-41.1-91.4-91.6-91.4-50.6 0-91.7 41-91.7 91.4 0.2 50.4 41.3 91.4 91.7 91.4z" />
  </svg>

<svg height="1000" width="968.8" xmlns="http://www.w3.org/2000/svg"><path d="M968.8 500c0 267.6 -217.2 484.4 -485.2 484.4C261.3 984.4 74.2 835.4 16.8 632l185.9 76.8c12.5 62.7 68.2 110.1 134.6 110.1 76.6 0 140.4 -63.2 137.1 -143.5L639.5 557.8c101.7 2.6 187.1 -79.9 187.1 -182.6 0 -100.8 -82.1 -182.6 -183 -182.6s-183.1 82 -183.1 182.6v2.3L344.9 544.9c-30.3 -1.7 -59.9 6.7 -84.9 23.7L0 461.1C19.9 211.7 228.7 15.6 483.6 15.6c268 0 485.2 216.8 485.2 484.4zM304.1 750.6L244.5 726a103.1 -103.1 0 0 1 53.2 50.4c52.5 21.8 112.8 -3.2 134.7 -55.5 10.6 -25.4 10.8 -53.3 .2 -78.7C422.1 616.8 402.3 596.9 377 586.3c-25.2 -10.5 -52.2 -10.1 -76 -1.1l61.5 25.3c38.7 16.1 57 60.4 40.8 99.1 -16.2 38.8 -60.5 57 -99.2 41zM643.6 496.9c-67.2 0 -121.9 -54.7 -121.9 -121.7S576.4 253.5 643.6 253.5s121.8 54.7 121.8 121.7S710.9 496.9 643.6 496.9zm.2 -30.5c50.5 0 91.6 -41 91.6 -91.4 0 -50.6 -41.1 -91.4 -91.6 -91.4s-91.7 41 -91.7 91.4c.2 50.4 41.3 91.4 91.7 91.4z"/></svg>
